asset/media/flat-color-icons_tablet-android.svg

<svg width="32" height="32" viewBox="0 0 64 64" fill="none" xmlns="http://www.w3.org/2000/svg">
<path d="M10.6665 54.6667V9.33333C10.6665 6.4 13.0665 4 15.9998 4H47.9998C50.9332 4 53.3332 6.4 53.3332 9.33333V54.6667C53.3332 57.6 50.9332 60 47.9998 60H15.9998C13.0665 60 10.6665 57.6 10.6665 54.6667Z" fill="#37474F"/>
<path d="M48.7617 10.1587H12.1903C11.276 10.1587 10.6665 10.6882 10.6665 11.4824V52.5175C10.6665 53.3117 11.276 53.8412 12.1903 53.8412H48.7617C49.676 53.8412 50.2856 53.3117 50.2856 52.5175V11.4824C50.2856 10.6882 49.676 10.1587 48.7617 10.1587Z" fill="#BBDEFB"/>
<path d="M28 54.6665H36V57.3332H28V54.6665Z" fill="#78909C"/>
</svg>

<svg xmlns="http://www.w3.org/2000/svg" width="32" height="32" fill="none" viewBox="0 0 64 64"><path fill="#37474F" d="M10.666 54.667V9.333C10.666 6.4 13.066 4 16 4h32c2.933 0 5.333 2.4 5.333 5.333v45.334C53.333 57.6 50.933 60 48 60H16c-2.934 0-5.334-2.4-5.334-5.333Z"/><path fill="#BBDEFB" d="M48.762 10.159H12.19c-.914 0-1.524.53-1.524 1.323v41.035c0 .795.61 1.324 1.524 1.324h36.572c.914 0 1.524-.53 1.524-1.324V11.483c0-.794-.61-1.323-1.524-1.323Z"/><path fill="#78909C" d="M28 54.666h8v2.667h-8v-2.666Z"/></svg>
